src/images/icons/twitter.svg

<svg width="25" height="25" viewBox="0 0 25 25" fill="none" xmlns="http://www.w3.org/2000/svg">
  <path fill-rule="evenodd" clip-rule="evenodd"
        d="M25 12.5C25 19.4036 19.4036 25 12.5 25C5.59644 25 0 19.4036 0 12.5C0 5.59644 5.59644 0 12.5 0C19.4036 0 25 5.59644 25 12.5ZM17.7789 10.8172C17.7789 14.153 15.3024 17.9999 10.7739 17.9999C9.38348 18 8.08963 17.5821 7 16.866C7.19272 16.8893 7.38885 16.9009 7.58731 16.9009C8.741 16.9009 9.80249 16.4976 10.6452 15.8203C9.5676 15.7999 8.65866 15.0699 8.34521 14.0669C8.49521 14.0965 8.64963 14.1124 8.80798 14.1124C9.03253 14.1124 9.25027 14.0814 9.45721 14.0236C8.33054 13.7923 7.48193 12.7715 7.48193 11.5489L7.48199 11.5318L7.4823 11.5167C7.814 11.7059 8.19339 11.8196 8.59729 11.8323C7.9364 11.3801 7.50174 10.6068 7.50174 9.73108C7.50174 9.26862 7.62369 8.83514 7.83505 8.46216C9.04919 9.98969 10.8637 10.9941 12.9099 11.0997C12.8677 10.9149 12.8461 10.7223 12.8461 10.5241C12.8461 9.13049 13.9487 8 15.3082 8C16.0164 8 16.6562 8.30688 17.1054 8.79755C17.6662 8.68408 18.1931 8.474 18.6687 8.18481C18.4847 8.77417 18.0944 9.26849 17.5862 9.58118C18.0841 9.52002 18.5589 9.38477 19 9.18365C18.6703 9.68982 18.2526 10.1345 17.7719 10.4909C17.7767 10.5991 17.7789 10.7079 17.7789 10.8172Z"/>
</svg>

<svg xmlns="http://www.w3.org/2000/svg" viewBox="0 0 25 25"><defs><style>.cls-1{fill:#b4c4d9;fill-rule:evenodd;}</style></defs><title>Asset 2</title><g id="Layer_2" data-name="Layer 2"><g id="Layer_1-2" data-name="Layer 1"><path class="cls-1" d="M12.5,0A12.5,12.5,0,1,0,25,12.5,12.5,12.5,0,0,0,12.5,0Zm5.27,10.49c0,.11,0,.22,0,.33a7.06,7.06,0,0,1-7,7.18A6.88,6.88,0,0,1,7,16.87a5.68,5.68,0,0,0,.59,0,4.87,4.87,0,0,0,3.06-1.08,2.47,2.47,0,0,1-2.3-1.75,2.32,2.32,0,0,0,.46,0A2.37,2.37,0,0,0,9.46,14a2.51,2.51,0,0,1-2-2.47v0h0a2.35,2.35,0,0,0,1.12.31,2.55,2.55,0,0,1-.76-3.37,6.92,6.92,0,0,0,5.07,2.64,2.78,2.78,0,0,1-.06-.58A2.49,2.49,0,0,1,15.31,8a2.44,2.44,0,0,1,1.8.8,5,5,0,0,0,1.56-.62,2.58,2.58,0,0,1-1.08,1.4A4.85,4.85,0,0,0,19,9.18,5.12,5.12,0,0,1,17.77,10.49Z"/></g></g></svg>
